img/svg/profile-icons/trash-ico.svg

<svg width="22" height="22" viewBox="0 0 22 22" fill="none" xmlns="http://www.w3.org/2000/svg">
<path d="M20.4219 3.56641H15.2227V2.57812C15.2227 1.15655 14.0661 0 12.6445 0H9.63672C8.21514 0 7.05859 1.15655 7.05859 2.57812V3.56641H1.85938C1.38474 3.56641 1 3.95115 1 4.42578C1 4.90041 1.38474 5.28516 1.85938 5.28516H2.74934L3.79666 18.8627C3.79696 18.8667 3.79731 18.8707 3.79765 18.8747C3.87568 19.7308 4.26833 20.5215 4.90324 21.1011C5.53814 21.6808 6.36125 22 7.22093 22H15.0603C16.8507 22 18.3224 20.6666 18.4836 18.8984C18.5267 18.4257 18.1785 18.0076 17.7058 17.9645C17.2327 17.9214 16.815 18.2696 16.7719 18.7423C16.692 19.6197 15.9561 20.2812 15.0603 20.2812H7.22093C6.32817 20.2812 5.59349 19.6122 5.50979 18.724L4.47321 5.28516H17.808L17.0741 14.8011C17.0376 15.2743 17.3916 15.6875 17.8648 15.724C17.8873 15.7257 17.9096 15.7266 17.9318 15.7266C18.3764 15.7266 18.753 15.384 18.7877 14.9333L19.5319 5.28516H20.4219C20.8965 5.28516 21.2812 4.90041 21.2812 4.42578C21.2812 3.95115 20.8965 3.56641 20.4219 3.56641ZM13.5039 3.56641H8.77734V2.57812C8.77734 2.10427 9.16286 1.71875 9.63672 1.71875H12.6445C13.1184 1.71875 13.5039 2.10427 13.5039 2.57812V3.56641Z" fill="#CC4C63"/>
<path d="M7.23599 7.00514C6.76183 7.02585 6.39424 7.42701 6.41495 7.90121L6.84463 17.7382C6.86479 18.1996 7.24519 18.5601 7.70255 18.5601C7.71518 18.5601 7.72794 18.5598 7.7407 18.5592C8.21486 18.5385 8.58246 18.1374 8.56175 17.6632L8.13206 7.82615C8.11135 7.35203 7.70942 6.98383 7.23599 7.00514Z" fill="#CC4C63"/>
<path d="M14.1492 7.82552L13.7195 17.6625C13.6988 18.1367 14.0664 18.5379 14.5406 18.5586C14.5533 18.5592 14.5661 18.5595 14.5787 18.5595C15.0361 18.5595 15.4165 18.199 15.4366 17.7376L15.8663 7.90059C15.887 7.42643 15.5194 7.02523 15.0453 7.00452C14.5719 6.98333 14.1699 7.35136 14.1492 7.82552Z" fill="#CC4C63"/>
<path d="M10.2812 7.86328V17.7002C10.2812 18.1749 10.666 18.5596 11.1406 18.5596C11.6153 18.5596 12 18.1749 12 17.7002V7.86328C12 7.38865 11.6153 7.00391 11.1406 7.00391C10.666 7.00391 10.2812 7.38865 10.2812 7.86328Z" fill="#CC4C63"/>
</svg>

<svg width="22" height="22" fill="none" xmlns="http://www.w3.org/2000/svg"><path d="M20.422 3.566h-5.2v-.988A2.581 2.581 0 0012.646 0H9.637a2.581 2.581 0 00-2.578 2.578v.988h-5.2a.86.86 0 100 1.72h.89l1.048 13.577v.012A3.43 3.43 0 004.904 21.1a3.43 3.43 0 002.317.9h7.84a3.41 3.41 0 003.423-3.102.86.86 0 10-1.712-.156 1.699 1.699 0 01-1.712 1.54H7.22a1.71 1.71 0 01-1.71-1.558L4.473 5.285h13.335l-.734 9.516a.86.86 0 101.714.132l.744-9.648h.89a.86.86 0 000-1.719zm-6.918 0H8.777v-.988a.86.86 0 01.86-.86h3.008a.86.86 0 01.859.86v.988z" fill="#CC4C63"/><path d="M7.236 7.005a.86.86 0 00-.821.896l.43 9.837a.86.86 0 001.717-.075l-.43-9.837a.86.86 0 00-.896-.82zm6.914.821l-.43 9.837a.86.86 0 001.717.075l.43-9.837a.86.86 0 00-1.718-.075zm-3.869.037V17.7a.86.86 0 101.719 0V7.863a.86.86 0 10-1.719 0z" fill="#CC4C63"/></svg>
